X:1
T:O allmächtiger Gott
T:Ludwig Senfl
T:Source : DDT 34----Leipzig---Breitkopf & Härtel---J.Wolf---1908. First print : Newe Deudsche Geistliche Gesenge---Wittemberg---G.Rhau---1544. Editor : André Vierendeels (07/08/17).
T:Notes : Original clefs : C1, C3, C4, F4 Original note values have been halved Editorial accidentals above the staff
T:O allmächtiger Gott
T:©
T:©
T:©
C:Ludwig Senfl
Z:©
%%score [ 1 2 3 4 ]
L:1/8
Q:1/4=120
M:2/2
K:C
V:1 treble nm="Soprano" snm="S"
V:2 treble-8 nm="Tenor 1" snm="T 1"
V:3 treble-8 nm="Tenor 2" snm="T 2"
V:4 bass nm="Bass" snm="B"
V:1
 z8 | z8 | z8 | e8 | d6 c2 | B4 A4 | z8 | z8 | z8 | z4 B4 | c4 G4 | A2 c2 B2 G2- | G2 FE F2 F2 | %13
w: |||O|all- mäch-|ti- ger||||dich|lobt der|Chri- * * *|* * * * sten|
 G8- | G8 | z4 z2 c2 | B4 A4 | G8 | F4 E4- | E4 z2 G2 | A2 A2 c3 B/A/ | G2 A4 G2 | A8 | z4 z2 A2 | %24
w: Rott',|_|Va-|ter, in|E-|wig- keit.|_ Voll|al- ler Ge- * *|* rech- tig-|keit|teil|
 G2 E2 F2 D2 | E4 z2 G2 | A2 F2 G2 E2 | D2 F2 E3 D/C/ | B,2 C4 B,2 | C4 z2 C2 | F4 G4 | %31
w: uns dein Gna- de|mit, auf|dasz der Chri- *||* * sten|Streit zu|Ei- nig|
 A2 A2 G3 F/E/ | F2 G4 F2 | G4 z2 G2 | c4 d4 | e2 e2 dcBA | G2 c2 cBAG | FD A2 B3 c | d3 c B4 | %39
w: keit bracht werd _ _|_ _ _|* be-|stän- dig|hie auf Erd _ _ _|_ auf Erd _ _ _|_ _ _ Un- *|* * ter|
 A4 G2 F2 | E3 D EF G2- |"^#""^#" G2 FE F4 | G4 z2 G2 | F2 A2 G2 B2 | A4 z2 G2 | F2 A2 G2 B2 | %46
w: uns, dei- nen|Kin- * * * *||dern, wie|wohl e- len- *|den, wie|wohl e- len- *|
 A2 c4 BA | G4 z2 B2 | A2 c4 BA | G8 |] %50
w: den Sün- * *|dern, Sün-||dern.|
V:2
 e4 f2 e2- | e2 dc e2 d2 | G2 c4 B2 | c3 d efge | f3 g a4 | d2 e2 c2 d2 | G2 c2 z2 c2 | %7
w: O all- *||mäch- ti- ger|Gott, _ _ _ _ _|_ _ _||* * o|
 BG g2 f2 a2 | d2 g4 f2 | g3 f ed e2- | e2 A2 e4 | z2 e2 e2 B2 | d4 d4 | B4 z2 B2 | B2 B2 e2 e2 | %15
w: all- * * * *|mäch- * *|* * * * ti-|* ger Gott,|dich lobt der|Chri- sten|Rott', Va-|ter in E- wig-|
 d6 c2 | d2 e4 d2 | e4 z2 e2 | c2 d2 B4 | c4 B2 e2 | A2 d2 c3 d | e2 c2 B4 | A4 z2 d2 | %23
w: keit, in|E- * wig-|keit. Voll|al- ler Ge-|rech- * *||* * tig|keit teil|
 B3 c de d2 | G2 c4 B2 | c4 z2 c2 | A2 d2 B2 c2 | A2 D2 E3 F | G2 A2 G4 | E4 z2 e2 | d2 d2 G2 g2 | %31
w: uns _ _ _ _|dein Gna- de|mit, auf|dasz der Chri- *||* * sten|Streit zu|Ei- nig- keit bracht|
 fedc B2 c2 | d2 e2 d4 | z2 d2 e4- | e2 dc B2 B2 | A2 c2 BAGF | E2 E2 A4 | z2 A2 G2 g2- | %38
w: werd _ _ _ _ _|_ _ _|be- stän-|* * * * dig|hie auf Erd, _ _ _|_ auf Erd|un- ter uns,|
 g2 f2 g4 | f3 e d4 | G3 A BABc | d4 z4 | B4 c4 | d4 e4 | c4 B2 c2- | c2 d2 e4 | c6 d2 | e4 B4 | %48
w: _ _ _|dei- * nen|Kin- * * * * *|dern,|wie wohl|e- len-|||||
 c8 | B8 |] %50
w: Sün-|dern.|
V:3
 z8 | z8 | z8 | z8 | z8 | z8 | e8 | d6 c2 | B4 A4 | G8 | z4 B4 | c4 G4 | A4 A4 | G8 | z4 c4 | %15
w: ||||||O|all- mäch-|ti- ger|Gott,|dich|lobt der|Chri- sten|Rott',|Va-|
 B6 A2 | G4 F4 | E8 | z4 G4 | A4 E4 | F4 F4 | E8 | z4 A4 | G6 F2 | E4 D4 | C8 | z4 E4 | F4 C4 | %28
w: ter in|E- wog-|keit.|Voll|al- ler|G'rech- tig-|keit|teil|uns dein|Gna- de|mit,|auf|dasz der|
 D4 D4 | C8 | z4 C4 | F4 G4 | A4 A4 | G8 | z4 G4 | c4 d4 | e4 e4 | d8 | z4 G4 | A4 B4 | c4 G4 | %41
w: hri- sten|Streit|zu|Ei- nig-|keit bracht|werd|be-|stän- dig|hie auf|Erd|un-|ter uns,|dei- nen|
 A8 | G8 | z4 E4 | F4 G4 | A4 E4 | F8 | E8- | E8- | E8 |] %50
w: Kin-|dern,|wie|wohl e-|len- de|Sün-|den.|_||
V:4
 A,8 | G,6 F,2 | E,4 D,4 | C,4 z2 C,2 | D,3 E, F,G,A,F, | G,2 E,2 F,2 D,2 | E,2 C,3 D,E,F, | %7
w: O|all- mäch-|ti- ger|Gott, o|all- * * * * *||* mäch- * * *|
 G,4 D,2 F,2 | G,4 D,4 | E,4 z2 E,2 | C,2 F,2 E,4 | A,,4 E,4 | D,4 D,4 | E,4 z2 E,2 | %14
w: * ti- *|* ger|Gott, dich|lobt der Chri-||* sten|Rott', Va-|
 E,2 E,2 C,2 C,2 | G,4 z4 | z8 | z2 C,3 D, E,2 | F,2 D,2 E,2 E,2 | A,,4 E,4 | D,4 z4 | z4 z2 E,2 | %22
w: ter in E- wig-|keit.||Voll _ _|al- ler Ge- rech-|* tig-|keit|teil|
 F,2 F,2 D,2 D,2 | E,4 z4 | z2 G,2 A,2 F,2 | G,4 z2 E,2 | F,2 D,2 E,2 C,2 | D,2 B,,2 C,2 A,,2 | %28
w: uns dein Gna- den|mit,|[dein Gna- den|mit,] auf|dasz der Chri- sten|Streit, auf dasz der|
 G,,2 F,,2 G,,2 G,,2 | C,4 z2 C,2 | D,2 D,2 E,2 E,2 | D,4 z2 E,2 | D,2 C,2 D,4 | z2 G,,2 C,2 C,2 | %34
w: Chri- * * sten|Streit zu|Ei- nig- keit bracht|werd be-|stän- dig hie,|be- stän- dig|
 A,,4 z4 | z4 z2 G,,2 | C,2 C,2 A,,4 | z2 D,2 G,4 | z2 D,2 E,4 | F,4 G,2 D,2 | E,8 | D,8 | z4 E,4 | %43
w: hie,|be-|stän- dig hie|Erd _|un- ter|uns, dei- nen|Kin-|dern,|wie|
 F,4 G,4 | A,4 E,4 | F,4 G,4 | A,4 A,,2 B,,2 | C,4 G,,4 | A,,8 | E,8 |] %50
w: wohl e-|len- den|Sün- *||||dern|

